assets/shop-tab/Asset/View More.svg

<svg width="96" height="55" viewBox="0 0 96 55" fill="none" xmlns="http://www.w3.org/2000/svg">
<path d="M96 19.0104C93.8952 19.175 92.239 20.851 92.239 22.8952C92.239 24.9372 93.8952 26.6155 96 26.7779L96 39.8117C96 43.3998 92.9384 46.308 89.1661 46.308H17.0002C13.2256 46.308 10.1663 43.3998 10.1663 39.8117L10.1663 26.7909C12.4306 26.7909 14.2667 25.0455 14.2667 22.8952C14.2667 20.7428 12.4306 18.9974 10.1663 18.9974L10.1663 6.49633C10.1664 2.90819 13.2257 0 17.0002 0H89.1661C92.9384 0 96 2.90819 96 6.49633L96 19.0104Z" fill="#216EDD"/>
<g filter="url(#filter0_d_634_1364)">
<path d="M88.8334 24.7021C86.7286 24.8666 85.0725 26.5427 85.0725 28.5868C85.0725 30.6289 86.7286 32.3071 88.8334 32.4695V45.5033C88.8334 49.0914 85.7719 51.9996 81.9996 51.9996H9.83387C6.05929 51.9996 3 49.0914 3 45.5033V32.4825C5.26429 32.4825 7.10032 30.7371 7.10032 28.5868C7.10032 26.4344 5.26429 24.6891 3 24.6891V12.188C3 8.59984 6.05929 5.69165 9.83387 5.69165H81.9996C85.7719 5.69165 88.8334 8.59984 88.8334 12.188V24.7021Z" fill="url(#paint0_linear_634_1364)"/>
<path d="M9.83398 6.19165H82C85.5201 6.19187 88.3329 8.89966 88.333 12.1877V24.262C86.2109 24.6377 84.5723 26.4139 84.5723 28.5872C84.5724 30.7578 86.2108 32.534 88.333 32.9084V45.5032C88.333 48.7914 85.5202 51.499 82 51.4993H9.83398C6.31139 51.4993 3.5 48.7916 3.5 45.5032V32.9553C5.78615 32.7178 7.60042 30.8728 7.60059 28.5872C7.60059 26.2995 5.78645 24.4526 3.5 24.2151V12.1877L3.50781 11.8811C3.67621 8.73275 6.42158 6.19165 9.83398 6.19165Z" stroke="url(#paint1_linear_634_1364)" stroke-opacity="0.2"/>
<path d="M9.83398 6.19165H82C85.5201 6.19187 88.3329 8.89966 88.333 12.1877V24.262C86.2109 24.6377 84.5723 26.4139 84.5723 28.5872C84.5724 30.7578 86.2108 32.534 88.333 32.9084V45.5032C88.333 48.7914 85.5202 51.499 82 51.4993H9.83398C6.31139 51.4993 3.5 48.7916 3.5 45.5032V32.9553C5.78615 32.7178 7.60042 30.8728 7.60059 28.5872C7.60059 26.2995 5.78645 24.4526 3.5 24.2151V12.1877L3.50781 11.8811C3.67621 8.73275 6.42158 6.19165 9.83398 6.19165Z" stroke="url(#paint2_linear_634_1364)" stroke-opacity="0.2"/>
</g>
<path d="M45.1126 23.0001H52.7952" stroke="white" stroke-width="1.3887" stroke-miterlimit="1.5" stroke-linecap="round" stroke-linejoin="round"/>
<path d="M40.052 23.0001H42.6358" stroke="white" stroke-width="1.3892" stroke-miterlimit="1.5" stroke-linecap="round" stroke-linejoin="round"/>
<path d="M37.3174 23.0001H37.733" stroke="white" stroke-width="1.3892" stroke-miterlimit="1.5" stroke-linecap="round" stroke-linejoin="round"/>
<path d="M50.2995 19.6517C51.1084 21.0712 52.231 22.1757 53.6336 22.9992" stroke="white" stroke-width="1.2791" stroke-miterlimit="1.5" stroke-linecap="round" stroke-linejoin="round"/>
<path d="M50.2995 26.3448C51.1084 24.9254 52.231 23.8209 53.6336 22.9974" stroke="white" stroke-width="1.2791" stroke-miterlimit="1.5" stroke-linecap="round" stroke-linejoin="round"/>
<g filter="url(#filter1_d_634_1364)">
<path d="M22.6007 30.9847L24.412 36.4629H24.4834L26.2914 30.9847H27.6779L25.2243 37.9446H23.6678L21.2176 30.9847H22.6007ZM28.5403 37.9446V32.7246H29.7705V37.9446H28.5403ZM29.1588 31.9838C28.9639 31.9838 28.7963 31.9192 28.6558 31.7901C28.5153 31.6587 28.4451 31.5012 28.4451 31.3177C28.4451 31.1319 28.5153 30.9745 28.6558 30.8453C28.7963 30.7139 28.9639 30.6482 29.1588 30.6482C29.3559 30.6482 29.5235 30.7139 29.6617 30.8453C29.8022 30.9745 29.8724 31.1319 29.8724 31.3177C29.8724 31.5012 29.8022 31.6587 29.6617 31.7901C29.5235 31.9192 29.3559 31.9838 29.1588 31.9838ZM33.3464 38.0465C32.8231 38.0465 32.3711 37.9378 31.9905 37.7203C31.6121 37.5005 31.321 37.1901 31.1171 36.7891C30.9132 36.3858 30.8112 35.9112 30.8112 35.3652C30.8112 34.8282 30.9132 34.357 31.1171 33.9515C31.3233 33.5437 31.611 33.2265 31.9803 32.9999C32.3496 32.7711 32.7834 32.6567 33.2819 32.6567C33.6036 32.6567 33.9072 32.7088 34.1926 32.813C34.4804 32.9149 34.7341 33.0735 34.9539 33.2888C35.1759 33.504 35.3504 33.7781 35.4772 34.1112C35.6041 34.442 35.6675 34.8362 35.6675 35.2938V35.6711H31.389V34.8418H34.4883C34.486 34.6062 34.4351 34.3967 34.3354 34.2131C34.2357 34.0274 34.0964 33.8812 33.9174 33.7747C33.7407 33.6683 33.5345 33.615 33.2989 33.615C33.0474 33.615 32.8265 33.6762 32.6362 33.7985C32.4459 33.9186 32.2975 34.0772 32.191 34.2743C32.0868 34.4692 32.0335 34.6832 32.0313 34.9166V35.6405C32.0313 35.9441 32.0868 36.2046 32.1978 36.4221C32.3088 36.6373 32.464 36.8027 32.6634 36.9183C32.8627 37.0315 33.0961 37.0882 33.3634 37.0882C33.5424 37.0882 33.7044 37.0633 33.8494 37.0134C33.9944 36.9613 34.1201 36.8854 34.2266 36.7857C34.3331 36.686 34.4135 36.5626 34.4679 36.4153L35.6166 36.5444C35.5441 36.848 35.4059 37.1131 35.202 37.3397C35.0003 37.564 34.742 37.7384 34.4271 37.863C34.1122 37.9854 33.752 38.0465 33.3464 38.0465ZM37.7576 37.9446L36.2827 32.7246H37.5367L38.4542 36.3949H38.5018L39.4398 32.7246H40.6802L41.6181 36.3745H41.6691L42.5731 32.7246H43.8305L42.3522 37.9446H41.071L40.0923 34.417H40.0209L39.0422 37.9446H37.7576ZM47.0632 37.9446V32.7246H48.2391V33.6116H48.3002C48.409 33.3126 48.5891 33.0792 48.8406 32.9116C49.0921 32.7416 49.3923 32.6567 49.7412 32.6567C50.0946 32.6567 50.3925 32.7428 50.6349 32.9149C50.8796 33.0849 51.0518 33.3171 51.1515 33.6116H51.2059C51.3214 33.3216 51.5163 33.0905 51.7904 32.9183C52.0668 32.7439 52.3942 32.6567 52.7725 32.6567C53.2528 32.6567 53.6448 32.8085 53.9484 33.1121C54.252 33.4156 54.4038 33.8586 54.4038 34.4408V37.9446H53.1702V34.6311C53.1702 34.3072 53.0841 34.0704 52.9119 33.9209C52.7397 33.7691 52.529 33.6932 52.2798 33.6932C51.983 33.6932 51.7508 33.7861 51.5831 33.9719C51.4177 34.1554 51.335 34.3944 51.335 34.6889V37.9446H50.1286V34.5802C50.1286 34.3106 50.047 34.0953 49.8839 33.9345C49.723 33.7736 49.5123 33.6932 49.2518 33.6932C49.0751 33.6932 48.9142 33.7385 48.7692 33.8291C48.6242 33.9175 48.5087 34.0432 48.4226 34.2063C48.3365 34.3672 48.2934 34.5552 48.2934 34.7705V37.9446H47.0632ZM57.9288 38.0465C57.419 38.0465 56.9772 37.9344 56.6034 37.7101C56.2296 37.4858 55.9396 37.172 55.7334 36.7687C55.5295 36.3655 55.4275 35.8942 55.4275 35.355C55.4275 34.8158 55.5295 34.3434 55.7334 33.9379C55.9396 33.5323 56.2296 33.2174 56.6034 32.9931C56.9772 32.7688 57.419 32.6567 57.9288 32.6567C58.4385 32.6567 58.8803 32.7688 59.2541 32.9931C59.628 33.2174 59.9168 33.5323 60.1207 33.9379C60.3269 34.3434 60.43 34.8158 60.43 35.355C60.43 35.8942 60.3269 36.3655 60.1207 36.7687C59.9168 37.172 59.628 37.4858 59.2541 37.7101C58.8803 37.9344 58.4385 38.0465 57.9288 38.0465ZM57.9356 37.061C58.212 37.061 58.4431 36.9851 58.6288 36.8333C58.8146 36.6792 58.9528 36.4731 59.0434 36.2148C59.1363 35.9565 59.1828 35.6688 59.1828 35.3516C59.1828 35.0322 59.1363 34.7433 59.0434 34.485C58.9528 34.2245 58.8146 34.0172 58.6288 33.8631C58.4431 33.709 58.212 33.632 57.9356 33.632C57.6524 33.632 57.4167 33.709 57.2287 33.8631C57.0429 34.0172 56.9036 34.2245 56.8107 34.485C56.7201 34.7433 56.6748 35.0322 56.6748 35.3516C56.6748 35.6688 56.7201 35.9565 56.8107 36.2148C56.9036 36.4731 57.0429 36.6792 57.2287 36.8333C57.4167 36.9851 57.6524 37.061 57.9356 37.061ZM61.4741 37.9446V32.7246H62.667V33.5946H62.7214C62.8165 33.2933 62.9796 33.0611 63.2107 32.898C63.4441 32.7326 63.7103 32.6499 64.0093 32.6499C64.0773 32.6499 64.1532 32.6533 64.237 32.6601C64.3231 32.6646 64.3945 32.6725 64.4511 32.6839V33.8155C64.399 33.7974 64.3163 33.7815 64.2031 33.7679C64.092 33.7521 63.9844 33.7442 63.8802 33.7442C63.6559 33.7442 63.4543 33.7929 63.2753 33.8903C63.0986 33.9854 62.9592 34.118 62.8573 34.2879C62.7553 34.4578 62.7044 34.6538 62.7044 34.8758V37.9446H61.4741ZM67.3644 38.0465C66.8411 38.0465 66.3891 37.9378 66.0085 37.7203C65.6301 37.5005 65.339 37.1901 65.1351 36.7891C64.9312 36.3858 64.8292 35.9112 64.8292 35.3652C64.8292 34.8282 64.9312 34.357 65.1351 33.9515C65.3412 33.5437 65.629 33.2265 65.9983 32.9999C66.3676 32.7711 66.8014 32.6567 67.2998 32.6567C67.6216 32.6567 67.9252 32.7088 68.2106 32.813C68.4983 32.9149 68.7521 33.0735 68.9719 33.2888C69.1939 33.504 69.3683 33.7781 69.4952 34.1112C69.6221 34.442 69.6855 34.8362 69.6855 35.2938V35.6711H65.4069V34.8418H68.5063C68.504 34.6062 68.453 34.3967 68.3533 34.2131C68.2537 34.0274 68.1143 33.8812 67.9353 33.7747C67.7586 33.6683 67.5525 33.615 67.3168 33.615C67.0654 33.615 66.8445 33.6762 66.6542 33.7985C66.4638 33.9186 66.3154 34.0772 66.209 34.2743C66.1047 34.4692 66.0515 34.6832 66.0492 34.9166V35.6405C66.0492 35.9441 66.1047 36.2046 66.2158 36.4221C66.3268 36.6373 66.482 36.8027 66.6813 36.9183C66.8807 37.0315 67.1141 37.0882 67.3814 37.0882C67.5604 37.0882 67.7224 37.0633 67.8674 37.0134C68.0124 36.9613 68.1381 36.8854 68.2446 36.7857C68.3511 36.686 68.4315 36.5626 68.4859 36.4153L69.6345 36.5444C69.562 36.848 69.4238 37.1131 69.2199 37.3397C69.0183 37.564 68.76 37.7384 68.4451 37.863C68.1302 37.9854 67.77 38.0465 67.3644 38.0465Z" fill="white"/>
</g>
<defs>
<filter id="filter0_d_634_1364" x="0" y="0.69165" width="93.8334" height="54.308" filterUnits="userSpaceOnUse" color-interpolation-filters="sRGB">
<feFlood flood-opacity="0" result="BackgroundImageFix"/>
<feColorMatrix in="SourceAlpha" type="matrix" values="0 0 0 0 0 0 0 0 0 0 0 0 0 0 0 0 0 0 127 0" result="hardAlpha"/>
<feOffset dx="1" dy="-1"/>
<feGaussianBlur stdDeviation="2"/>
<feComposite in2="hardAlpha" operator="out"/>
<feColorMatrix type="matrix" values="0 0 0 0 0 0 0 0 0 0 0 0 0 0 0 0 0 0 0.15 0"/>
<feBlend mode="normal" in2="BackgroundImageFix" result="effect1_dropShadow_634_1364"/>
<feBlend mode="normal" in="SourceGraphic" in2="effect1_dropShadow_634_1364" result="shape"/>
</filter>
<filter id="filter1_d_634_1364" x="20.2606" y="29.6912" width="50.382" height="9.31229" filterUnits="userSpaceOnUse" color-interpolation-filters="sRGB">
<feFlood flood-opacity="0" result="BackgroundImageFix"/>
<feColorMatrix in="SourceAlpha" type="matrix" values="0 0 0 0 0 0 0 0 0 0 0 0 0 0 0 0 0 0 127 0" result="hardAlpha"/>
<feOffset/>
<feGaussianBlur stdDeviation="0.478495"/>
<feComposite in2="hardAlpha" operator="out"/>
<feColorMatrix type="matrix" values="0 0 0 0 0 0 0 0 0 0 0 0 0 0 0 0 0 0 0.25 0"/>
<feBlend mode="normal" in2="BackgroundImageFix" result="effect1_dropShadow_634_1364"/>
<feBlend mode="normal" in="SourceGraphic" in2="effect1_dropShadow_634_1364" result="shape"/>
</filter>
<linearGradient id="paint0_linear_634_1364" x1="77.1272" y1="11.1769" x2="24.2826" y2="50.1421" gradientUnits="userSpaceOnUse">
<stop stop-color="#569AFD"/>
<stop offset="1" stop-color="#1A6EE7"/>
</linearGradient>
<linearGradient id="paint1_linear_634_1364" x1="70.4813" y1="6.80312" x2="59.7377" y2="38.2519" gradientUnits="userSpaceOnUse">
<stop stop-color="#C8DFFF"/>
<stop offset="1" stop-color="#5297FC" stop-opacity="0"/>
</linearGradient>
<linearGradient id="paint2_linear_634_1364" x1="37.7631" y1="56.8582" x2="41.0027" y2="32.0294" gradientUnits="userSpaceOnUse">
<stop stop-color="#18488F"/>
<stop offset="1" stop-color="#01265B" stop-opacity="0"/>
</linearGradient>
</defs>
</svg>

<svg xmlns="http://www.w3.org/2000/svg" width="96" height="55" fill="none" viewBox="0 0 96 55"><path fill="#216edd" d="M96 19.01c-2.105.165-3.761 1.841-3.761 3.885 0 2.042 1.656 3.72 3.761 3.883v13.034c0 3.588-3.062 6.496-6.834 6.496H17c-3.774 0-6.834-2.908-6.834-6.496V26.79c2.265 0 4.1-1.745 4.1-3.896 0-2.152-1.835-3.898-4.1-3.898v-12.5C10.166 2.907 13.226 0 17 0h72.166C92.938 0 96 2.908 96 6.496z"/><g filter="url(#a)"><path fill="url(#b)" d="M88.833 24.702c-2.104.165-3.76 1.84-3.76 3.885 0 2.042 1.656 3.72 3.76 3.882v13.034C88.833 49.091 85.772 52 82 52H9.834C6.059 52 3 49.09 3 45.503v-13.02c2.264 0 4.1-1.746 4.1-3.896 0-2.153-1.836-3.898-4.1-3.898V12.188C3 8.6 6.06 5.692 9.834 5.692H82c3.772 0 6.833 2.908 6.833 6.496z"/><path stroke="url(#c)" stroke-opacity=".2" d="M9.834 6.192H82c3.52 0 6.333 2.708 6.333 5.996v12.074c-2.122.376-3.76 2.152-3.76 4.325 0 2.17 1.638 3.947 3.76 4.321v12.595c0 3.288-2.813 5.996-6.333 5.996H9.834c-3.523 0-6.334-2.707-6.334-5.996V32.955c2.286-.237 4.1-2.082 4.1-4.368 0-2.288-1.814-4.134-4.1-4.372V12.188l.008-.307c.168-3.148 2.914-5.69 6.326-5.69Z"/><path stroke="url(#d)" stroke-opacity=".2" d="M9.834 6.192H82c3.52 0 6.333 2.708 6.333 5.996v12.074c-2.122.376-3.76 2.152-3.76 4.325 0 2.17 1.638 3.947 3.76 4.321v12.595c0 3.288-2.813 5.996-6.333 5.996H9.834c-3.523 0-6.334-2.707-6.334-5.996V32.955c2.286-.237 4.1-2.082 4.1-4.368 0-2.288-1.814-4.134-4.1-4.372V12.188l.008-.307c.168-3.148 2.914-5.69 6.326-5.69Z"/></g><path stroke="#fff" stroke-linecap="round" stroke-linejoin="round" stroke-miterlimit="1.5" stroke-width="1.389" d="M45.113 23h7.682m-12.743 0h2.584m-5.319 0h.416"/><path stroke="#fff" stroke-linecap="round" stroke-linejoin="round" stroke-miterlimit="1.5" stroke-width="1.279" d="M50.3 19.652c.808 1.42 1.931 2.524 3.334 3.347"/><path stroke="#fff" stroke-linecap="round" stroke-linejoin="round" stroke-miterlimit="1.5" stroke-width="1.279" d="M50.3 26.345c.808-1.42 1.931-2.524 3.334-3.348"/><g filter="url(#e)"><path fill="#fff" d="m22.6 30.985 1.812 5.478h.071l1.808-5.478h1.387l-2.454 6.96h-1.556l-2.45-6.96zm5.94 6.96v-5.22h1.23v5.22zm.619-5.961a.72.72 0 0 1-.503-.194.62.62 0 0 1-.21-.472q0-.28.21-.473a.7.7 0 0 1 .503-.197q.295 0 .503.197.21.194.21.473 0 .274-.21.472a.7.7 0 0 1-.503.194m4.187 6.063q-.785 0-1.355-.327a2.2 2.2 0 0 1-.874-.93q-.306-.606-.306-1.425 0-.806.306-1.413.31-.612.863-.952.554-.343 1.302-.343.483 0 .91.156.432.152.762.476.333.323.523.822.19.496.19 1.183v.377H31.39v-.83h3.1a1.3 1.3 0 0 0-.154-.628 1.1 1.1 0 0 0-.418-.438 1.2 1.2 0 0 0-.618-.16q-.377 0-.663.183-.285.181-.445.476a1.4 1.4 0 0 0-.16.643v.724q0 .455.167.781.166.322.465.496.3.17.7.17.27 0 .486-.075.218-.078.378-.227a.95.95 0 0 0 .24-.37l1.15.128q-.11.457-.415.796-.303.336-.775.523a3 3 0 0 1-1.08.184m4.412-.102-1.475-5.22h1.254l.917 3.67h.048l.938-3.67h1.24l.938 3.65h.051l.904-3.65h1.258l-1.479 5.22h-1.281l-.979-3.528h-.071l-.979 3.528zm9.305 0v-5.22h1.176v.887h.061q.164-.45.54-.7a1.57 1.57 0 0 1 .901-.255q.53 0 .894.258.367.255.517.697h.054q.173-.435.584-.694.415-.261.983-.261.72 0 1.175.455.456.456.456 1.329v3.504H53.17V34.63q0-.486-.258-.71a.92.92 0 0 0-.632-.228q-.446 0-.697.279-.248.274-.248.717v3.256h-1.206V34.58q0-.405-.245-.645-.242-.242-.632-.242a.9.9 0 0 0-.483.136.95.95 0 0 0-.346.377q-.13.242-.13.564v3.175zm10.866.102q-.765 0-1.326-.337a2.3 2.3 0 0 1-.87-.941q-.305-.606-.305-1.414 0-.81.305-1.417a2.3 2.3 0 0 1 .87-.945q.561-.336 1.326-.336.764 0 1.325.336.561.337.867.945.309.608.309 1.417t-.31 1.414a2.26 2.26 0 0 1-.866.941q-.561.337-1.325.337m.007-.986q.414 0 .693-.228.279-.231.414-.618.14-.388.14-.863 0-.48-.14-.867a1.37 1.37 0 0 0-.414-.622 1.05 1.05 0 0 0-.693-.231q-.426 0-.707.231a1.4 1.4 0 0 0-.418.622q-.136.387-.136.867 0 .476.136.863.14.387.418.618.282.228.707.228m3.538.884v-5.22h1.193v.87h.054q.144-.453.49-.697.35-.248.798-.248.102 0 .228.01.129.008.214.024v1.132a1.3 1.3 0 0 0-.248-.048 2 2 0 0 0-.323-.024q-.336 0-.605.146a1.07 1.07 0 0 0-.418.398 1.1 1.1 0 0 0-.153.588v3.069zm5.89.102q-.784 0-1.356-.327a2.2 2.2 0 0 1-.873-.93q-.306-.606-.306-1.425 0-.806.306-1.413.31-.612.863-.952.554-.343 1.302-.343.483 0 .91.156.432.152.762.476.333.323.523.822.19.496.19 1.183v.377h-4.278v-.83h3.1a1.3 1.3 0 0 0-.154-.628 1.1 1.1 0 0 0-.418-.438 1.2 1.2 0 0 0-.618-.16q-.377 0-.663.183-.285.181-.445.476a1.4 1.4 0 0 0-.16.643v.724q0 .455.167.781.166.322.465.496.3.17.7.17.27 0 .486-.075.218-.078.378-.227a.95.95 0 0 0 .24-.37l1.15.128q-.11.457-.415.796a2 2 0 0 1-.775.523 3 3 0 0 1-1.08.184"/></g><defs><linearGradient id="b" x1="77.127" x2="24.283" y1="11.177" y2="50.142" gradientUnits="userSpaceOnUse"><stop stop-color="#569afd"/><stop offset="1" stop-color="#1a6ee7"/></linearGradient><linearGradient id="c" x1="70.481" x2="59.738" y1="6.803" y2="38.252" gradientUnits="userSpaceOnUse"><stop stop-color="#c8dfff"/><stop offset="1" stop-color="#5297fc" stop-opacity="0"/></linearGradient><linearGradient id="d" x1="37.763" x2="41.003" y1="56.858" y2="32.029" gradientUnits="userSpaceOnUse"><stop stop-color="#18488f"/><stop offset="1" stop-color="#01265b" stop-opacity="0"/></linearGradient><filter id="a" width="93.833" height="54.308" x="0" y=".692" color-interpolation-filters="sRGB" filterUnits="userSpaceOnUse"><feFlood flood-opacity="0" result="BackgroundImageFix"/><feColorMatrix in="SourceAlpha" result="hardAlpha" values="0 0 0 0 0 0 0 0 0 0 0 0 0 0 0 0 0 0 127 0"/><feOffset dx="1" dy="-1"/><feGaussianBlur stdDeviation="2"/><feComposite in2="hardAlpha" operator="out"/><feColorMatrix values="0 0 0 0 0 0 0 0 0 0 0 0 0 0 0 0 0 0 0.15 0"/><feBlend in2="BackgroundImageFix" result="effect1_dropShadow_634_1364"/><feBlend in="SourceGraphic" in2="effect1_dropShadow_634_1364" result="shape"/></filter><filter id="e" width="50.382" height="9.312" x="20.261" y="29.691" color-interpolation-filters="sRGB" filterUnits="userSpaceOnUse"><feFlood flood-opacity="0" result="BackgroundImageFix"/><feColorMatrix in="SourceAlpha" result="hardAlpha" values="0 0 0 0 0 0 0 0 0 0 0 0 0 0 0 0 0 0 127 0"/><feOffset/><feGaussianBlur stdDeviation=".478"/><feComposite in2="hardAlpha" operator="out"/><feColorMatrix values="0 0 0 0 0 0 0 0 0 0 0 0 0 0 0 0 0 0 0.25 0"/><feBlend in2="BackgroundImageFix" result="effect1_dropShadow_634_1364"/><feBlend in="SourceGraphic" in2="effect1_dropShadow_634_1364" result="shape"/></filter></defs></svg>
